images/Pagination-1.svg

<svg width="55" height="55" viewBox="0 0 55 55" fill="none" xmlns="http://www.w3.org/2000/svg">
<rect width="55" height="55" rx="4" fill="#F2F2F2"/>
<path d="M23.3462 31.8H26.1262V23.9L26.4262 22.54L25.4662 23.72L23.6862 24.94L22.5862 23.44L27.1462 19.76H28.6062V31.8H31.3262V34H23.3462V31.8Z" fill="black"/>
</svg>

<svg width="55" height="55" fill="none" xmlns="http://www.w3.org/2000/svg"><rect width="55" height="55" rx="4" fill="#F2F2F2"/><path d="M23.35 31.8h2.78v-7.9l.3-1.36-.96 1.18-1.78 1.22-1.1-1.5 4.56-3.68h1.46V31.8h2.72V34h-7.98v-2.2Z" fill="#000"/></svg>
